material/.icons/material/cordova.svg

<svg xmlns="http://www.w3.org/2000/svg" viewBox="0 0 24 24"><path d="M20.18 21.55h-3.24l.23-2.73h-1.59l-.23 2.73h-6.7l-.23-2.73H6.83l.23 2.73H3.82L2 9.73l4.55-7.28h10.9L22 9.73l-1.82 11.82M16.55 6.09h-2.93l.2 1.36h-3.64l.2-1.36H7.45L5.64 9.73 6.55 17h10.9l.91-7.27-1.81-3.64m-1.6 8.5c-.25 0-.45-.76-.45-1.69 0-.94.2-1.7.45-1.7.26 0 .46.76.46 1.7 0 .93-.2 1.69-.46 1.69m-5.73.14c-.26 0-.46-.76-.46-1.69 0-.94.2-1.69.46-1.69.25 0 .45.75.45 1.69 0 .93-.2 1.69-.45 1.69z"/></svg>

<?xml version="1.0" encoding="UTF-8"?><!DOCTYPE svg PUBLIC "-//W3C//DTD SVG 1.1//EN" "http://www.w3.org/Graphics/SVG/1.1/DTD/svg11.dtd"><svg xmlns="http://www.w3.org/2000/svg" xmlns:xlink="http://www.w3.org/1999/xlink" version="1.1" id="mdi-cordova" width="24" height="24" viewBox="0 0 24 24"><path d="M20.18,21.55H16.94L17.17,18.82H15.58L15.35,21.55H8.65L8.42,18.82H6.83L7.06,21.55H3.82L2,9.73L6.55,2.45H17.45L22,9.73L20.18,21.55M16.55,6.09H13.62L13.82,7.45H10.18L10.38,6.09H7.45L5.64,9.73L6.55,17H17.45L18.36,9.73L16.55,6.09M14.95,14.59C14.7,14.59 14.5,13.83 14.5,12.9C14.5,11.96 14.7,11.2 14.95,11.2C15.21,11.2 15.41,11.96 15.41,12.9C15.41,13.83 15.21,14.59 14.95,14.59M9.22,14.73C8.96,14.73 8.76,13.97 8.76,13.04C8.76,12.1 8.96,11.35 9.22,11.35C9.47,11.35 9.67,12.1 9.67,13.04C9.67,13.97 9.47,14.73 9.22,14.73Z" /></svg>
